austria/municipalities/70325.svg

<?xml version="1.0" encoding="UTF-8"?>
<!DOCTYPE svg PUBLIC "-//W3C//DTD SVG 1.1//EN" "http://www.w3.org/Graphics/SVG/1.1/DTD/svg11.dtd">
<svg xmlns="http://www.w3.org/2000/svg" version="1.1" width="166px" height="192px" style="shape-rendering:geometricPrecision; text-rendering:geometricPrecision; image-rendering:optimizeQuality; fill-rule:evenodd; clip-rule:evenodd" xmlns:xlink="http://www.w3.org/1999/xlink">
<g><path style="opacity:1" fill="#0b0b0b" d="M -0.5,-0.5 C 54.8333,-0.5 110.167,-0.5 165.5,-0.5C 165.5,39.8333 165.5,80.1667 165.5,120.5C 156.736,159.597 132.736,183.263 93.5,191.5C 86.1667,191.5 78.8333,191.5 71.5,191.5C 31.3716,183.038 7.37159,158.705 -0.5,118.5C -0.5,78.8333 -0.5,39.1667 -0.5,-0.5 Z"/></g>
<g><path style="opacity:1" fill="#423f3d" d="M 161.5,3.5 C 108.997,3.16774 56.664,3.50108 4.5,4.5C 4.16667,4.5 3.83333,4.5 3.5,4.5C 29.4914,3.16686 55.8248,2.50019 82.5,2.5C 109.002,2.50002 135.335,2.83336 161.5,3.5 Z"/></g>
<g><path style="opacity:1" fill="#fefdfd" d="M 4.5,4.5 C 56.664,3.50108 108.997,3.16774 161.5,3.5C 161.667,41.8348 161.5,80.1681 161,118.5C 159.036,134.753 152.536,148.753 141.5,160.5C 95.8235,108.459 50.1569,56.4594 4.5,4.5 Z"/></g>
<g><path style="opacity:1" fill="#263166" d="M 3.5,4.5 C 3.83333,4.5 4.16667,4.5 4.5,4.5C 50.1569,56.4594 95.8235,108.459 141.5,160.5C 126.129,178.344 106.463,187.344 82.5,187.5C 48.9949,186.15 24.8283,170.483 10,140.5C 6.97513,133.094 4.97513,125.427 4,117.5C 3.50001,79.8348 3.33335,42.1681 3.5,4.5 Z"/></g>
<g><path style="opacity:1" fill="#201b19" d="M 50.5,16.5 C 50.8966,15.475 51.5632,15.3083 52.5,16C 59.8907,21.723 67.5574,27.0564 75.5,32C 73.5,32.3333 71.5,32.6667 69.5,33C 73.3333,37.5 77.1667,42 81,46.5C 80.3188,40.3643 82.4855,35.5309 87.5,32C 94.4819,26.5942 101.982,22.0942 110,18.5C 119.612,23.1422 128.612,28.8089 137,35.5C 138.52,39.3749 138.854,43.3749 138,47.5C 135.46,59.869 132.793,72.2023 130,84.5C 126.311,86.0487 122.477,87.2154 118.5,88C 126.629,97.798 135.129,107.298 144,116.5C 144.483,117.448 144.649,118.448 144.5,119.5C 142.61,119.703 141.11,119.037 140,117.5C 131.686,107.685 123.186,98.0184 114.5,88.5C 106.751,87.9284 99.0843,86.9284 91.5,85.5C 88.1356,74.9881 85.3023,64.3215 83,53.5C 77.6667,47.5 72.3333,41.5 67,35.5C 66.7837,37.3839 66.117,39.0506 65,40.5C 60.8949,31.9378 56.0615,23.9378 50.5,16.5 Z"/></g>
<g><path style="opacity:1" fill="#d53023" d="M 118.5,25.5 C 124.405,27.7927 129.738,31.1261 134.5,35.5C 136.402,37.0632 137.402,39.0632 137.5,41.5C 135.578,52.263 133.245,62.9297 130.5,73.5C 129.833,73.8333 129.167,74.1667 128.5,74.5C 124.68,72.8552 120.68,72.1885 116.5,72.5C 117.204,56.835 117.87,41.1684 118.5,25.5 Z"/></g>
<g><path style="opacity:1" fill="#d53023" d="M 100.5,24.5 C 102.305,40.2981 103.305,56.2981 103.5,72.5C 99.0202,72.2681 94.6868,72.9347 90.5,74.5C 87.307,63.711 84.6403,52.711 82.5,41.5C 83.4931,37.9989 85.4931,35.1655 88.5,33C 92.6803,30.3036 96.6803,27.4702 100.5,24.5 Z"/></g>
<g><path style="opacity:1" fill="#fdfdfd" d="M 109.5,19.5 C 111.807,20.6534 114.14,21.8201 116.5,23C 117.116,24.4002 117.449,25.9002 117.5,27.5C 116.296,42.5118 115.462,57.5118 115,72.5C 120.254,73.6194 125.421,75.1194 130.5,77C 129.62,78.3561 129.286,79.8561 129.5,81.5C 117.327,78.9038 105.16,78.9038 93,81.5C 92.228,81.3552 91.5613,81.0219 91,80.5C 90.5065,78.8659 90.3398,77.1992 90.5,75.5C 95.4295,74.3517 100.43,73.685 105.5,73.5C 104.74,57.6485 103.74,41.8152 102.5,26C 102.585,24.8926 102.919,23.8926 103.5,23C 105.727,22.059 107.727,20.8923 109.5,19.5 Z"/></g>
<g><path style="opacity:1" fill="#cf3023" d="M 97.5,81.5 C 105.84,81.3336 114.173,81.5003 122.5,82C 124.715,82.1705 126.715,82.8372 128.5,84C 116.159,87.2481 103.826,87.2481 91.5,84C 93.6115,83.1553 95.6115,82.322 97.5,81.5 Z"/></g>
<g><path style="opacity:1" fill="#fefefd" d="M -0.5,118.5 C 7.37159,158.705 31.3716,183.038 71.5,191.5C 47.5,191.5 23.5,191.5 -0.5,191.5C -0.5,167.167 -0.5,142.833 -0.5,118.5 Z"/></g>
<g><path style="opacity:1" fill="#fdfdfd" d="M 165.5,120.5 C 165.5,144.167 165.5,167.833 165.5,191.5C 141.5,191.5 117.5,191.5 93.5,191.5C 132.736,183.263 156.736,159.597 165.5,120.5 Z"/></g>
<g><path style="opacity:1" fill="#1a191b" d="M 49.5,91.5 C 51.3084,91.4914 52.9751,91.9914 54.5,93C 57.0218,95.5218 59.5218,98.0218 62,100.5C 72.6854,94.46 75.8521,97.1267 71.5,108.5C 85.1003,110.871 87.1003,117.038 77.5,127C 87.8047,134.92 86.4713,138.753 73.5,138.5C 75.0158,152.077 69.6825,155.744 57.5,149.5C 53.2202,161.478 48.8869,161.478 44.5,149.5C 32.3337,155.751 27.0003,152.084 28.5,138.5C 15.056,138.324 14.056,134.491 25.5,127C 20.7514,123.767 18.9181,119.267 20,113.5C 22.8046,110.347 26.3046,108.681 30.5,108.5C 26.703,97.5111 30.0363,94.8444 40.5,100.5C 43.1877,97.1456 46.1877,94.1456 49.5,91.5 Z"/></g>
<g><path style="opacity:1" fill="#f8f7f7" d="M 50.5,143.5 C 52.1482,145.429 53.8149,147.429 55.5,149.5C 54.4229,151.729 53.7563,154.063 53.5,156.5C 48.8995,156.567 46.5662,154.233 46.5,149.5C 48.2776,147.736 49.6109,145.736 50.5,143.5 Z"/></g>
<g><path style="opacity:1" fill="#fcfcfc" d="M 63.5,129.5 C 66.465,130.902 68.965,132.902 71,135.5C 74.4075,150.625 69.2408,154.458 55.5,147C 53.0695,144.695 52.0695,141.862 52.5,138.5C 58.3312,137.991 61.9978,134.991 63.5,129.5 Z"/></g>
<g><path style="opacity:1" fill="#fcfbfb" d="M 30.5,135.5 C 32.8367,133.334 35.3367,131.334 38,129.5C 40.3153,135.083 44.482,138.416 50.5,139.5C 48.2916,146.787 43.2916,150.454 35.5,150.5C 33.6803,150.351 32.1803,149.684 31,148.5C 30.501,144.179 30.3343,139.846 30.5,135.5 Z"/></g>
<g><path style="opacity:1" fill="#fcfcfc" d="M 73.5,128.5 C 78.5549,129.059 81.3883,131.726 82,136.5C 79.2628,137.61 76.4294,137.777 73.5,137C 72.3241,134.314 70.6575,131.981 68.5,130C 70.3817,129.802 72.0484,129.302 73.5,128.5 Z"/></g>
<g><path style="opacity:1" fill="#f8f8f8" d="M 30.5,135.5 C 27.5007,137.437 24.1674,137.937 20.5,137C 20.1269,132.654 22.2935,129.82 27,128.5C 29.2256,128.978 31.3923,129.645 33.5,130.5C 32.0476,131.94 31.0476,133.606 30.5,135.5 Z"/></g>
<g><path style="opacity:1" fill="#e2a21c" d="M 48.5,112.5 C 61.5744,113.654 65.741,120.32 61,132.5C 55.8647,138.05 50.0313,138.883 43.5,135C 35.9913,125.375 37.658,117.875 48.5,112.5 Z"/></g>
<g><path style="opacity:1" fill="#fcfcfc" d="M 65.5,109.5 C 69.2733,109.263 72.9399,109.763 76.5,111C 81.5839,113.163 82.7505,116.663 80,121.5C 76.2267,126.604 71.06,128.937 64.5,128.5C 65.5112,122.709 63.8445,117.876 59.5,114C 61.3893,112.236 63.3893,110.736 65.5,109.5 Z"/></g>
<g><path style="opacity:1" fill="#fbfbfa" d="M 27.5,109.5 C 33.3049,108.524 38.3049,110.024 42.5,114C 38.1555,117.876 36.4888,122.709 37.5,128.5C 27.0854,129.234 21.5854,124.567 21,114.5C 23.3256,112.934 25.4922,111.268 27.5,109.5 Z"/></g>
<g><path style="opacity:1" fill="#f9f8f8" d="M 67.5,98.5 C 68.8333,98.5 70.1667,98.5 71.5,98.5C 71.7525,101.32 71.2525,103.986 70,106.5C 67.1229,107.456 64.4562,108.789 62,110.5C 62.4024,108.126 62.2357,105.793 61.5,103.5C 63.5193,101.81 65.5193,100.144 67.5,98.5 Z"/></g>
<g><path style="opacity:1" fill="#fafafa" d="M 30.5,98.5 C 34.1823,98.5907 37.349,99.924 40,102.5C 40.8141,104.902 40.6474,107.235 39.5,109.5C 36.9433,108.593 34.4433,107.593 32,106.5C 30.9207,103.937 30.4207,101.271 30.5,98.5 Z"/></g>
<g><path style="opacity:1" fill="#fbfbfa" d="M 48.5,93.5 C 57.5057,95.0179 61.3391,100.351 60,109.5C 59.7104,111.044 59.0437,112.377 58,113.5C 53.3333,110.833 48.6667,110.833 44,113.5C 41.8495,109.786 41.1828,105.786 42,101.5C 44.0007,98.6693 46.1673,96.0026 48.5,93.5 Z"/></g>
</svg>

<svg xmlns="http://www.w3.org/2000/svg" width="166" height="192" style="shape-rendering:geometricPrecision;text-rendering:geometricPrecision;image-rendering:optimizeQuality;fill-rule:evenodd;clip-rule:evenodd"><path style="opacity:1" fill="#0b0b0b" d="M-.5-.5h166v121c-8.764 39.097-32.764 62.763-72 71h-22c-40.128-8.462-64.128-32.795-72-73V-.5z"/><path style="opacity:1" fill="#423f3d" d="M161.5 3.5a6162.832 6162.832 0 0 0-157 1h-1c25.991-1.333 52.325-2 79-2 26.502 0 52.835.333 79 1z"/><path style="opacity:1" fill="#fefdfd" d="M4.5 4.5a6162.832 6162.832 0 0 1 157-1c.167 38.335 0 76.668-.5 115-1.964 16.253-8.464 30.253-19.5 42a367306.489 367306.489 0 0 0-137-156z"/><path style="opacity:1" fill="#263166" d="M3.5 4.5h1c45.657 51.96 91.323 103.959 137 156-15.371 17.844-35.037 26.844-59 27-33.505-1.35-57.672-17.017-72.5-47a89.448 89.448 0 0 1-6-23c-.5-37.665-.667-75.332-.5-113z"/><path style="opacity:1" fill="#201b19" d="M50.5 16.5c.397-1.025 1.063-1.192 2-.5a274.18 274.18 0 0 0 23 16l-6 1L81 46.5c-.681-6.136 1.486-10.97 6.5-14.5A110.384 110.384 0 0 1 110 18.5a142.665 142.665 0 0 1 27 17c1.52 3.875 1.854 7.875 1 12a1820.746 1820.746 0 0 1-8 37 59.263 59.263 0 0 1-11.5 3.5 513.131 513.131 0 0 0 25.5 28.5c.483.948.649 1.948.5 3-1.89.203-3.39-.463-4.5-2a1046.103 1046.103 0 0 0-25.5-29 206.079 206.079 0 0 1-23-3 330.606 330.606 0 0 1-8.5-32l-16-18c-.216 1.884-.883 3.55-2 5-4.105-8.562-8.938-16.562-14.5-24z"/><path style="opacity:1" fill="#d53023" d="M118.5 25.5c5.905 2.293 11.238 5.626 16 10 1.902 1.563 2.902 3.563 3 6a423.348 423.348 0 0 1-7 32l-2 1c-3.82-1.645-7.82-2.311-12-2 .704-15.665 1.37-31.332 2-47zM100.5 24.5a472.707 472.707 0 0 1 3 48 32.011 32.011 0 0 0-13 2 342.6 342.6 0 0 1-8-33c.993-3.501 2.993-6.334 6-8.5 4.18-2.696 8.18-5.53 12-8.5z"/><path style="opacity:1" fill="#fdfdfd" d="m109.5 19.5 7 3.5c.616 1.4.949 2.9 1 4.5a915.674 915.674 0 0 0-2.5 45 111.498 111.498 0 0 1 15.5 4.5c-.88 1.356-1.214 2.856-1 4.5-12.173-2.596-24.34-2.596-36.5 0a3.943 3.943 0 0 1-2-1c-.493-1.634-.66-3.3-.5-5a78.6 78.6 0 0 1 15-2c-.76-15.852-1.76-31.685-3-47.5a6.29 6.29 0 0 1 1-3c2.227-.941 4.227-2.108 6-3.5z"/><path style="opacity:1" fill="#cf3023" d="M97.5 81.5c8.34-.166 16.673 0 25 .5 2.215.17 4.215.837 6 2-12.341 3.248-24.674 3.248-37 0a217.163 217.163 0 0 0 6-2.5z"/><path style="opacity:1" fill="#fefefd" d="M-.5 118.5c7.872 40.205 31.872 64.538 72 73h-72v-73z"/><path style="opacity:1" fill="#fdfdfd" d="M165.5 120.5v71h-72c39.236-8.237 63.236-31.903 72-71z"/><path style="opacity:1" fill="#1a191b" d="M49.5 91.5c1.808-.009 3.475.491 5 1.5l7.5 7.5c10.685-6.04 13.852-3.373 9.5 8 13.6 2.371 15.6 8.538 6 18.5 10.305 7.92 8.971 11.753-4 11.5 1.516 13.577-3.817 17.244-16 11-4.28 11.978-8.613 11.978-13 0-12.166 6.251-17.5 2.584-16-11-13.444-.176-14.444-4.009-3-11.5-4.749-3.233-6.582-7.733-5.5-13.5 2.805-3.153 6.305-4.819 10.5-5-3.797-10.989-.464-13.656 10-8a57.449 57.449 0 0 1 9-9z"/><path style="opacity:1" fill="#f8f7f7" d="M50.5 143.5a324.986 324.986 0 0 1 5 6 21.032 21.032 0 0 0-2 7c-4.6.067-6.934-2.267-7-7 1.778-1.764 3.11-3.764 4-6z"/><path style="opacity:1" fill="#fcfcfc" d="M63.5 129.5a20.583 20.583 0 0 1 7.5 6c3.407 15.125-1.76 18.958-15.5 11.5-2.43-2.305-3.43-5.138-3-8.5 5.831-.509 9.498-3.509 11-9z"/><path style="opacity:1" fill="#fcfbfb" d="M30.5 135.5a66.461 66.461 0 0 1 7.5-6c2.315 5.583 6.482 8.916 12.5 10-2.208 7.287-7.208 10.954-15 11-1.82-.149-3.32-.816-4.5-2a84.94 84.94 0 0 1-.5-13z"/><path style="opacity:1" fill="#fcfcfc" d="M73.5 128.5c5.055.559 7.888 3.226 8.5 8-2.737 1.11-5.57 1.277-8.5.5a20.637 20.637 0 0 0-5-7c1.882-.198 3.548-.698 5-1.5z"/><path style="opacity:1" fill="#f8f8f8" d="M30.5 135.5c-3 1.937-6.333 2.437-10 1.5-.373-4.346 1.794-7.18 6.5-8.5a39.103 39.103 0 0 1 6.5 2c-1.452 1.44-2.452 3.106-3 5z"/><path style="opacity:1" fill="#e2a21c" d="M48.5 112.5c13.074 1.154 17.241 7.82 12.5 20-5.135 5.55-10.969 6.383-17.5 2.5-7.509-9.625-5.842-17.125 5-22.5z"/><path style="opacity:1" fill="#fcfcfc" d="M65.5 109.5c3.773-.237 7.44.263 11 1.5 5.084 2.163 6.25 5.663 3.5 10.5-3.773 5.104-8.94 7.437-15.5 7 1.011-5.791-.656-10.624-5-14.5a33.867 33.867 0 0 1 6-4.5z"/><path style="opacity:1" fill="#fbfbfa" d="M27.5 109.5c5.805-.976 10.805.524 15 4.5-4.344 3.876-6.011 8.709-5 14.5-10.415.734-15.915-3.933-16.5-14a63.404 63.404 0 0 0 6.5-5z"/><path style="opacity:1" fill="#f9f8f8" d="M67.5 98.5h4c.252 2.82-.248 5.486-1.5 8a31.043 31.043 0 0 0-8 4 14.602 14.602 0 0 0-.5-7c2.02-1.69 4.02-3.356 6-5z"/><path style="opacity:1" fill="#fafafa" d="M30.5 98.5c3.682.09 6.849 1.424 9.5 4 .814 2.402.647 4.735-.5 7a101.29 101.29 0 0 1-7.5-3 18.982 18.982 0 0 1-1.5-8z"/><path style="opacity:1" fill="#fbfbfa" d="M48.5 93.5c9.006 1.518 12.84 6.851 11.5 16-.29 1.544-.956 2.877-2 4-4.667-2.667-9.333-2.667-14 0-2.15-3.714-2.817-7.714-2-12 2-2.83 4.167-5.497 6.5-8z"/></svg>
